X:1
T:The Flowers O' the Forest
M:4/4
L:1/8
K:A
 E2 E3/2 F/2E-F AB/2-c/2|d-c BA F/2- A3/2 EC|(3B,3.99999962500005/5.99999925000009B,3.99999962500005/5.99999925000009C3.99999962500005/5.99999925000009B,3.99999962500005/5.99999925000009C3.99999962500005/5.99999925000009E3.99999962500005/5.99999925000009 E3/2 F/2E-F Ac/2-d/2|\
 c2 B3/2 A/2 A3 z| =G2G/2-B/2A/2-G/2 F3/2- E/2F-A|E-c BA F/2- A3/2 EC|\
 =G2G/2-B/2-A/2-G/2 F3/2- E/2- FA|E-c B3/2 A/2 A3 z|c-e e3/2 f/2f-ed-c|\
e-c BA F/2- A3/2 EA/2-B/2|c-e e3/2 f/2f-e dc|B/2-c/2-d/2-c/2 B3/2 A/2 A3 B|\
c-e e3/2 f/2f-e dc|e-c BA F/2- A3/2 E C/2C/2|(3B,3.99999962500005/5.99999925000009B,3.99999962500005/5.99999925000009C3.99999962500005/5.99999925000009B,3.99999962500005/5.99999925000009C3.99999962500005/5.99999925000009E3.99999962500005/5.99999925000009 E3/2 F/2E-F Ac/2-d/2|\
 c2 B3/2 A/2 A3 z|
